X:1
T:Lord God of health
T:John Farmer
T:Source : The Whole Book of Psalms---London---Musical Antiquarian Society---1844. First publication : London---Th.Est(e)---1592. Editor : André Vierendeels (08/09/16).
T:-natural
T:Lord God of health (Ps 88)
T:©
T:©
C:John Farmer
Z:©
%%score [ 1 2 3 4 ]
L:1/8
Q:1/4=110
M:4/4
K:C
V:1 treble nm="Soprano" snm="S"
V:2 treble nm="Alto" snm="A"
V:3 treble-8 nm="Tenor" snm="T"
V:4 bass nm="Bass" snm="B"
V:1
 G8 | A4 c4 | A4 f4 | e4 e4 | d8 || f4 d4- | d2 c2 c4- | c4 B4 | c8 || _B8 | A4 G4 | d4 B2- G2 | %12
w: Lord,|God of|health the|hope and|stay,|thou art|_ a- lone|_ to|me,|I|call and|cry through- *|
 c4 B4 | c8 || g8 | f4 e4 | e2- e2 d4 | !fermata!c8 |] %18
w: out the|day,|and|all the|night- * to|thee.|
V:2
 E8 | F4 G4 | F4 A4 | A6 G2 | ^F8 || z4 _B4 | G4 G4 | A4 G2- F2 | E8 || z4 G4 | A4 _B4 | A4 D4 | %12
w: Lord,|God of|health the|hope and|stay,|thou|art a-|lone to _|me,|I|call and|cry through-|
 E4 D4 | C8 || z4 c4 | A2- F2 G4 | A4 G2 F2 | !fermata!E8 |] %18
w: out the|day,|and|all _ the|night to _|thee.|
V:3
 c8 | c4 c4 | c4 d4 | d4 ^c4 | d8 || d8 | e4 e4 | d4 d4 | c8 || d8 | d4 d4 | d4 d4 | g6 f2 | e8 || %14
w: Lord,|God of|health the|hope and|stay,|thou|art a-|lone to|me,|I|call and|cry through-|out the|day,|
 e8 | d4 c4 | c4 B4 | !fermata!c8 |] %18
w: and|all the|night to|thee.|
V:4
 C,8 | F,4 E,4 | F,4 D,4 | A,4 A,,4 | D,8 || D,4 G,4 | C4 C,4 | F,4- G,4 | C,8 || G,8 | ^F,4 G,4 | %11
w: Lord,|God of|health the|hope and|stay,|thou art|a- lone|to _|me,|I|call and|
 D,4 G,4 | E,2 C,2 G,4 | C,8 || C8 | F,4 C4 | A,2 F,2 G,4 | !fermata!C,8 |] %18
w: cry through|ou _ the|day,|and|all the|night _ to|thee.|

